!!!COM: Corelli, Arcangelo
!!!OPR: Sonata da camera
!!!OPS: 4
!!!ONM: 12
!!!OMV: 2
!!!OTL: Allemanda
!!!OMD: Presto
**kern	**fb	**kern	**kern	**kern
*part4	*part4	*part3	*part2	*part1
*staff4	*	*staff3	*staff2	*staff1
*clefF4	*	*clefF4	*clefG2	*clefG2
*k[f#c#]	*	*k[f#c#]	*k[f#c#]	*k[f#c#]
*b:	*	*b:	*b:	*b:
*M2/2	*	*M2/2	*M2/2	*M2/2
*met(c|)	*	*met(c|)	*met(c|)	*met(c|)
=1	=1	=1	=1	=1
8BB	.	8BB	8dd	8ff#
=	=	=	=	=
4.BB	.	4.BB	4.dd	4.ff#
8B	.	8B	8dd	8f#
4B	.	4B	4dd	8bL
.	.	.	.	8dd
4A#X	6	4A#X	4f#	8cc#
.	.	.	.	8eeJ
=	=	=	=	=
4B	.	4B	4f#	8ddL
.	.	.	.	8ff#
8DL	6	8DL	8r	8bb
8EJ	.	8EJ	8gg	8cc#J
4F#	6 4	4F#	4ff#	8ddL
.	.	.	.	8bb
4FF#	5 #	4FF#	4ee	8cc#
.	.	.	.	8aa#XJ
=	=	=	=	=
2BB	5	2BB	4.dd	8bL
.	.	.	.	8dd
.	6	.	.	8gg
.	.	.	8dd	8bJ
2AA	.	2AA	4ee	8cc#L
.	.	.	.	8ee
.	.	.	4cc#	8ani
.	.	.	.	8aaJ
=	=	=	=	=
4D	.	4D	4.a	8ff#L
.	.	.	.	8a
4F#	6	4F#	.	8dd
.	.	.	8a	8f#J
4E	7	4E	4b	8gL
.	.	.	.	8dd
4A	7	4A	4a	8e
.	.	.	.	8cc#J
=	=	=	=	=
2D	5	2D	2f#	8dL
.	.	.	.	8f#
.	6	.	.	8b
.	.	.	.	8ddJ
2AA#X	6 -r5	2AA#X	4r	8cc#L
.	.	.	.	8ee
.	.	.	4cc#	8a#X
.	.	.	.	8cc#J
=	=	=	=	=
2BB	.	2BB	2f#	8ddL
.	.	.	.	8b
.	.	.	.	8ff#
.	.	.	.	8aaniJ
2E#X	6 5	2E#X	4r	8gg#XL
.	.	.	.	8bb
.	.	.	4gg#X	8ee#X
.	.	.	.	8gg#J
=	=	=	=	=
2F#	.	2F#	2cc#	8aaL
.	.	.	.	8cc#
.	.	.	.	8ff#
.	.	.	.	8aaJ
4BB	.	4BB	4r	8ddL
.	.	.	.	8ff#
[4B	#6\	[4B	4g#X	8b
.	.	.	.	8ddJ
=	=	=	=	=
4B]	4 #2\	4B]	4c#	8e#XL
.	.	.	.	8c#
4A	6	4A	4cc#	8f#
.	.	.	.	8AJ
4G#X	7	4G#X	2b	8BL
.	.	.	.	8f#
4c#	7 #	4c#	.	8c#
.	.	.	.	8e#J
=	=	=	=	=
2F#	.	2F#	2a	8f#L
.	.	.	.	8aa
.	.	.	.	8ff#
.	.	.	.	8aaJ
4r	.	4r	4r	8ggL
.	.	.	.	8bb
4A	5	4A	4ee	8cc#
.	.	.	.	8aaJ
=	=	=	=	=
4F#	6	4F#	4a	8ddL
.	.	.	.	8ff#
4G	.	4G	4dd	8b
.	.	.	.	8ggJ
4E	6 5	4E	4gg	8cc#L
.	.	.	.	8ee
4F#	#	4F#	4cc#	8a#X
.	.	.	.	8ff#J
=	=	=	=	=
2B	.	2B	2dd	8ddL
.	.	.	.	8b
.	.	.	.	8f#
.	.	.	.	8aniJ
4r	.	4r	4r	8gL
.	.	.	.	8b
4E	6	4E	4g	8e
.	.	.	.	8cc#J
=	=	=	=	=
4F#	#	4F#	4c#	8a#XL
.	.	.	.	8f#
4D	6	4D	4f#	8b
.	.	.	.	8dJ
4C#	7	4C#	2e	8eL
.	.	.	.	8b
4F#	7 #	4F#	.	8f#
.	.	.	.	8a#J
=	=	=	=	=
2BB	.	2BB	2d	8bL
.	.	.	.	8bb
.	.	.	.	8ff#
.	.	.	.	8aaniJ
4r	.	4r	4r	8ggL
.	.	.	.	8bb
4A	.	4A	4ee	8cc#
.	.	.	.	8aaJ
=	=	=	=	=
4F#	6	4F#	4a	8ddL
.	.	.	.	8ff#
4G	.	4G	4dd	8b
.	.	.	.	8ggJ
4E	6 5	4E	4gg	8cc#L
.	.	.	.	8ee
4F#	#	4F#	4cc#	8a#X
.	.	.	.	8ff#J
=	=	=	=	=
2B	.	2B	2dd	8ddL
.	.	.	.	8b
.	.	.	.	8f#
.	.	.	.	8aniJ
4r	.	4r	4r	8gL
.	.	.	.	8b
4E	6	4E	4g	8e
.	.	.	.	8cc#J
=	=	=	=	=
4F#	#	4F#	4c#	8a#XL
.	.	.	.	8f#
4D	6	4D	4f#	8b
.	.	.	.	8dJ
4C#	7	4C#	2e	8eL
.	.	.	.	8b
4F#	7 #	4F#	.	8f#
.	.	.	.	8a#J
=	=	=	=	=
2.BB	.	2.BB	2.d	2.b
8r	.	8r	8r	8r
8D	.	8D	8ff#	8aani
=||	=||	=||	=||	=||
4.D	.	4.D	4.ff#	4.aa
8d	.	8d	8ff#	8aa
4d	.	4d	4aa	8ff#L
.	.	.	.	8aa
4c#	6	4c#	4a	8ee
.	.	.	.	8aaJ
=	=	=	=	=
4d	.	4d	4.a	8ff#L
.	.	.	.	8aa
4F#	6	4F#	.	8dd
.	.	.	8a	8ff#J
2G	5	2G	4dd	8bL
.	.	.	.	8dd
.	6	.	4b	8g
.	.	.	.	8bJ
=	=	=	=	=
4A	.	4A	4e	8c#L
.	.	.	.	8a
4B	5	4B	4d	8f#
.	.	.	.	8ddJ
4E	7	4E	4b	8gL
.	.	.	.	8dd
4A	7	4A	4a	8e
.	.	.	.	8cc#J
=	=	=	=	=
2D	.	2D	2f#	8dL
.	.	.	.	8ff#
.	.	.	.	8b
.	.	.	.	8ggJ
4r	.	4r	4r	8cc#L
.	.	.	.	8ee
4F#	#	4F#	4a#X	8a#X
.	.	.	.	8ff#J
=	=	=	=	=
2BB	.	2BB	2b	8ddL
.	.	.	.	8ff#
.	.	.	.	8b
.	.	.	.	8ddJ
4r	.	4r	4r	8e#XL
.	.	.	.	8cc#
4C#	7 #	4C#	4e#X	8g#X
.	.	.	.	8bJ
=	=	=	=	=
2F#	.	2F#	2f#	8aL
.	.	.	.	8cc#
.	.	.	.	8f#
.	.	.	.	8aJ
4r	.	4r	4r	8dL
.	.	.	.	8f#
[4B	#6\	[4B	4g#X	8B
.	.	.	.	8g#XJ
=	=	=	=	=
4B]	#4\ 2	4B]	4c#	8e#XL
.	.	.	.	8c#
4A	6	4A	4cc#	8f#
.	.	.	.	8AJ
4G#X	7	4G#X	2b	8BL
.	.	.	.	8f#
4c#	7 #	4c#	.	8c#
.	.	.	.	8e#J
=	=	=	=	=
2F#	-	2F#	2a	8f#L
.	.	.	.	8aa
.	.	.	.	8ff#
.	.	.	.	8aaJ
4r	.	4r	4r	8dd#XL
.	.	.	.	8aa
4B	#	4B	4dd#X	8b
.	.	.	.	8bbJ
=	=	=	=	=
4e	.	4e	4ee	8ggL
.	.	.	.	8b
8GL	6	8GL	8bL	8ee
8AJ	.	8AJ	8ccnJ	8f#J
4B	6 4	4B	4b	8gL
.	.	.	.	8ee
4BB	5 #	4BB	4a	8f#
.	.	.	.	8dd#XJ
=	=	=	=	=
2E	-	2E	2g	8eL
.	.	.	.	8gg
.	.	.	.	8bb
.	.	.	.	8ggJ
4r	.	4r	4r	8eeL
.	.	.	.	8gg
4E	.	4E	4gg	8bb
.	.	.	.	8ggJ
=	=	=	=	=
2A	7	2A	2ee	8cc#L
.	.	.	.	8gg
.	.	.	.	8aa
.	.	.	.	8ggJ
4r	.	4r	4r	8aL
.	.	.	.	8gg
4AA	7	4AA	4ee	8aa
.	.	.	.	8ggJ
=	=	=	=	=
2D	.	2D	2ff#	8ddL
.	.	.	.	8ff#
.	.	.	.	8aa
.	.	.	.	8ff#J
4r	.	4r	4r	8bL
.	.	.	.	8ff#
4d	6	4d	4b	8gg
.	.	.	.	8ff#J
=	=	=	=	=
2A#X	6	2A#X	2cc#	8cc#L
.	.	.	.	8ee
.	.	.	.	8ff#
.	.	.	.	8eeJ
4r	.	4r	4r	8a#XL
.	.	.	.	8ee
4F#	7 #	4F#	4a#X	8ff#
.	.	.	.	8eeJ
=	=	=	=	=
2BB	.	2BB	2b	8ddL
.	.	.	.	8ff#
.	.	.	.	8bb
.	.	.	.	8ff#J
4r	.	4r	4r	8ddL
.	.	.	.	8ff#
4B	.	4B	4dd	8bb
.	.	.	.	8ff#J
=	=	=	=	=
2A	6	2A	2f#	8cc#L
.	.	.	.	8ff#
.	.	.	.	8aa
.	.	.	.	8ff#J
4r	.	4r	4r	8cc#L
.	.	.	.	8ff#
4AA	6	4AA	4cc#	8aa
.	.	.	.	8ff#J
=	=	=	=	=
2GG	6	2GG	2e	8bL
.	.	.	.	8ee
.	.	.	.	8gg
.	.	.	.	8eeJ
4r	.	4r	4r	8bL
.	.	.	.	8ee
4E	.	4E	4g	8gg
.	.	.	.	8bJ
=	=	=	=	=
4F#	#	4F#	4c#	8a#XL
.	.	.	.	8f#
4D	6	4D	4f#	8b
.	.	.	.	8dJ
4C#	7	4C#	2e	8eL
.	.	.	.	8b
4F#	7 #	4F#	.	8f#
.	.	.	.	8a#J
=	=	=	=	=
2BB	.	2BB	2d	8bL
.	.	.	.	8ff#
.	.	.	.	8bb
.	.	.	.	8ff#J
4r	.	4r	4r	8ddL
.	.	.	.	8ff#
4B	.	4B	4dd	8bb
.	.	.	.	8ff#J
=	=	=	=	=
2A	6	2A	2f#	8cc#L
.	.	.	.	8ff#
.	.	.	.	8aa
.	.	.	.	8ff#J
4r	.	4r	4r	8cc#L
.	.	.	.	8ff#
4AA	6	4AA	4cc#	8aa
.	.	.	.	8ff#J
=	=	=	=	=
2GG	6	2GG	2e	8bL
.	.	.	.	8ee
.	.	.	.	8gg
.	.	.	.	8eeJ
4r	.	4r	4r	8bL
.	.	.	.	8ee
4E	.	4E	4g	8gg
.	.	.	.	8bJ
=	=	=	=	=
4F#	#	4F#	4c#	8a#XL
.	.	.	.	8f#
4D	6	4D	4f#	8b
.	.	.	.	8dJ
4C#	7	4C#	2e	8eL
.	.	.	.	8b
4F#	7 #	4F#	.	8f#
.	.	.	.	8a#J
=	=	=	=	=
2.BB	.	2.BB	2.d	2.b
8r	.	8r	8r	8r
==	==	==	==	==
*-	*-	*-	*-	*-
!!!system-decoration: [{s1,s2},s3,s4]
!!!YEM: CC BY-NC-SA 4.0; CCARH; DCML
!!!RDF**kern: i = editorial accidental